X: 403
T: Chuzhuan niaglaozi shui xinteng
%%abc-version 2.0
%%abcx-abcm2ps-target-version 5.9.1 (29 Sep 2008)
%%abc-creator hum2abc beta
%%abcx-conversion-date 2013/10/02 07:52:30
%%abc-edited-by Helmut Schaffrath
%%humdrum-veritas 3225018102
%%humdrum-veritas-data 412091612
%%continueall 1
%%barnumbers 0
L: 1/8
M: 2/4
K: G
d ed2 [I:setbarnb 1]| 
B A G E | 
G A B d | 
A4 | 
d e d d | 
B A G E | 
G A B E | 
D4 |]  



